X: 1
T: Baron's Barn
C: trad. arr. Rachen Maloney /Rustic Roots
R: march
S: https://fiddletunes.net/Gilsaw.jpg 2020-8-1
Z: 2020 John Chambers <jc:trillian.mit.edu>
M: 2/4
L: 1/8
K: Am
|:\
"Am"A2B2  c2d2 | ec2B- B2A2 | a3g e2d2 | ec2B- B2A2 ||\
[1,3 "Am"A2B2  c2d2 | ec2B- B2A2 | "Em"G2A2 B2G2 | EG2B- B2B2 :|\
[2,4 "Dm"f2d2 c2B2 | "Am"ec2B- B2A2 | "Em"G2B2 E2G2 | "Am"AA2A- A4 :|
|:\
"C"C2D2 E2C2 | c2zc- c4 | "E"B,2C2 D2B,2 | B2zB- B4 ||\
"Am"A,2B,2 C2A,2 | A2zA- A4 | "Em"G2B2 E2G2 | ee2e- e4 ||\
"Am"A2c2 B2A2 | AG2F- F2E2 | "Dm"F2D2 G2F2 | FE2D- D2C2 ||
"Em"D2F2 E2D2 | DC2B,- B,2B,2 |["Usually" G2B2 E2G2 | "Am"AA2A- A4 :|\
|["End:"y\
"Em"G2B2 E3E | G2B2E3E | G2B2E2G2 | "Am"AA2A- A4 |]\
y8 y8 y8 y8 y8 y8 y8 y8
